d1 <- stream "127.0.0.1" 57121 dirt {timestamp = BundleStamp, latency = 0.1}

--better transition needed
cps 20

cps 0.78

cps 0.0000001

cps 0

d1 silence

-- pattern7, improved breakbeats
d1 $ stack [
degradeBy 1 $ sometimesBy 0.1 (|*| speed "2.2") $ sometimesBy 0.2 (|+| speed "0.8") $ randcat [sound (samples "akuma2*8" (irand(10))),sound (samples "akuma1*8" (irand(10))),sound (samples "akuma3*8" (irand(10))),sound (samples "akuma4*8" (irand(10)))] # unit "c" # speed "8" # gain "1.4",
sound "ek:4 ~ ~ ~ ~ ek:4 ~ ~" # gain "1.8",
sound "~ ~ esn:5 ~ ~ ~ esn:5 ~" # gain "1.7"
]

d1 silence

-- starting breaks
d1 $ stack [
degradeBy 0.1 $ sometimesBy 0.2 (slow 2)
$ sometimesBy 0.8 (# speed "2") $ sometimesBy 0.2 (# speed "1 1.2 1.5 2 4")
$ sometimesBy 0.1 (# coarse "8 12 18 12") $
sometimesBy 0.2 (density 2) $ sound (samples "cspecial*8" (irand(10)))
  # gain "2"
]

--pattern14, compressed messing around
d1 $ stack [
--density 16 $ slow 12 $ superimpose (iter 4) $ sound "plow:5 {plow:2?, [plow:1*3 plow:6*2 pbang]?}?"
--  # speed "{9 1.5 1.5 3}%6",
--density 16 $ slow 12 $ sound "ek:43*2" # gain "8",
--density 16 $ slow 6 $ density 2 $ sound "ehh:12 ~ ~ ehh:12" # speed "1" # gain "1" # speed "{1 0.8 0.5 0.7 0.8 0.5}%4",
--density 16 $ slow 12 $ (0.25 <~) $ sound "nclp:49" # gain "6",
degradeBy 0.1 $ sometimesBy 0.2 (slow 2)
$ sometimesBy 0.8 (# speed "2") $ sometimesBy 0.2 (# speed "1 2.2 1.5 2 9")
$ sometimesBy 0.3 (# coarse "4 9 3 4") $
sometimesBy 0.2 (density 2) $ sound (samples "cspecial*8" (irand(10))) # speed "39 99 15 90 24"
  # gain "10"
]





--
bang = pbang
LongerSections = plong
LowPiano = plow
notes = p[a,b,c,d,e]
ShortPink = plink
sprinkle = pspr
chi
clow
cmid
cscale
cspecial
--

-- pattern1 - kindohm style, quite jittery
d1 $ stack [
  --density 16 $ slow 12 $ jux (iter 4) $ sound "plow:5 {plow:2?, [plow:1*3 plow:6*2 pbang]?}?"
  --  # speed "{2 1 3 4}%6",
  --density 16 $ slow 12 $ sound "bd {bd, perc:5?}%4"
  --  # gain "1"
  --  # speed "{1 0.9 0.8 0.7}%3",
  slow 2 $ sound (samples "pg*16?" (irand(2)))  # speed "{0.125 0.5 0.75}%3" # gain "0.8"
    ]


d1 silence




-- pattern2, tempo adjusted

d1 $ (0.33333333333 <~) $ stack [
density 16 $ slow 12 $ superimpose (iter 4) $ sound "plow:5 {plow:2?, [plow:1*3 plow:6*2 pbang]?}?"
  # speed "{2 1 3 4}%6"
--slow 2 $ sound (samples "pg*16?" (irand(2)))  # speed "{0.125 0.5 0.75}%3" # gain "0.8"
]

-- pattern3, tempo adjusted
d1 $ (0.33333333333 <~) $ stack [
--density 16 $ slow 12 $ superimpose (iter 4) $ sound "plow:5 {plow:2?, [plow:1*3 plow:6*2 pbang]?}?"
--  # speed "{2 1 3 4}%6"
density 16 $ slow 6 $ sound (samples "akuma2*4?" (irand 10)) # speed "1" # gain "1" # accelerate "-1 1"
  ]


-- pattern3, tempo adjusted
d1 $ (0.33333333333 <~) $ stack [
density 16 $ slow 6 $ sound (samples "akuma2*1" (irand 1)) # speed "1" # gain "1" # shape "0.5"
  ]


-- pattern4, feel

d1 $ (0.33333333333 <~) $ stack [
  --density 16 $ slow 12 $ superimpose (iter 4) $ sound "plow:5 {plow:2?, [plow:1*3 plow:6*2 pbang]?}?"
  --  # speed "{2 1 3 4}%6",
  density 16 $ slow 12 $ every 2 (0.25 ~>) $ sound "ek:13" # gain "1",
  density 16 $ slow 12 $ superimpose (iter 6) $ slow 2 $ sound "hh:8*2 hh:8*2 hh:8*2 sn:5*2" # speed "{1 2 1.2 1.5 1.1 0.9}%3",
  density 16 $ slow 12 $ slow 4 $ sound "cscale ~ ~ ~ ~ cscale ~ ~" # gain "1.5" # speed "1 1.05"
]

cps 0.6

d1 silence

--pattern5, getting more complex
d1 $ (0.33333333333 <~) $ stack [
  density 16 $ slow 12 $ superimpose (iter 4) $ sound "plow:5 {plow:2?, [plow:1*3 plow:6*2 pbang]?}?"
    # speed "{2 1 3 4}%6",
  density 16 $ slow 12 $ every 2 (0.25 ~>) $ sound "ek:13" # gain "1",
  --density 16 $ slow 12 $ superimpose (iter 6) $ slow 2 $ sound "ehh:0*2 ehh:0*2 ehh:0*2 esn:26*2" # speed "{1 2 1.2 1.5 1.1 0.9}%3" # gain "0.8",
  density 16 $ slow 12 $ slow 4 $ sound "cscale ~ ~ ~ ~ cscale ~ ~" # gain "1.5" # speed "1 1.05",
  density 16 $ slow 12 $ density 4 $ sound "ehh:0 ~ ~ ehh:0" # speed "2"
]

--pattern6, getting less complex
d1 $ (0.33333333333 <~) $ stack [
  --density 16 $ slow 12 $ superimpose (iter 4) $ sound "plow:5 {plow:2?, [plow:1*3 plow:6*2 pbang]?}?"
  --  # speed "{2 1 3 4}%6",
  density 16 $ slow 12 $ every 2 (0.25 ~>) $ sound "ek:13" # gain "1",
  density 16 $ slow 12 $ slow 4 $ sound "cscale ~ ~ ~ ~ cscale ~ ~" # gain "1.5" # speed "1 1.05",
  density 16 $ slow 12 $ superimpose (iter 6) $ slow 2 $ sound "hh:8*2 hh:8*2 hh:8*2 sn:5*2" # speed "{1 2 1.2 1.5 1.1 0.9}%3",
  density 16 $ slow 6 $ density 2 $ sound "ehh:12 ~ ~ ehh:12" # speed "1" # gain "0.8" # speed "{1 0.8 0.5 0.7 0.8 0.5}%4",
  density 16 $ slow 12 $ density 2 $ degradeBy 0.8 $ sound "ecym:9" # gain "0.7" # shape "0.2"
]




d1 silence



--pattern8, added breaks, subtracted odd hat pattern
d1 $ (0.33333333333 <~) $ stack [
  density 16 $ slow 12 $ superimpose (iter 4) $ sound "plow:5 {plow:2?, [plow:1*3 plow:6*2 pbang]?}?"
    # speed "{2 1 3 4}%6",
  density 16 $ slow 12 $ every 2 (0.25 ~>) $ sound "ek:13" # gain "1",
  density 16 $ slow 12 $ slow 4 $ sound "cscale ~ ~ ~ ~ cscale ~ ~" # gain "1.5" # speed "1 1.05",
  density 16 $ slow 12 $ sometimesBy 0.2 (slow 2) $ sometimesBy 0.5 (# speed "2") $ sometimesBy 0.5 (# coarse "7 5 10 3") $ sound (samples "akuma2*8" (irand(10))),
  density 16 $ slow 6 $ density 2 $ sound "ehh:12 ~ ~ ehh:12" # speed "1" # gain "0.8" # speed "{1 0.8 0.5 0.7 0.8 0.5}%4",
  density 16 $ slow 12 $ density 2 $ degradeBy 0.8 $ sound "ecym:9" # gain "0.7" # shape "0.2"
]




-- pattern9, breakbeats
d1 $ stack [
degradeBy 0.1 $ density 16 $ slow 12 $ sometimesBy 0.2 (slow 2)
$ sometimesBy 0.8 (# speed "2") $ sometimesBy 0.2 (# speed "1 1.2 1.5 2 4")
$ sometimesBy 0.1 (# coarse "8 12 18 12") $
sometimesBy 0.2 (density 2) $ sound (samples "cspecial*8" (irand(10)))
  # gain "2"
]


-- pattern10, working out snare
d1 $ stack [
density 16 $ slow 12 $ superimpose (iter 4) $ sound "plow:5 {plow:2?, [plow:1*3 plow:6*2 pbang]?}?"
  # speed "{2 1 3 4}%6",
density 16 $ slow 12 $ every 2 (0.25 ~>) $ sound "ek:13" # gain "1",
density 16 $ slow 6 $ density 2 $ sound "ehh:12 ~ ~ ehh:12" # speed "1" # gain "0.8" # speed "{1 0.8 0.5 0.7 0.8 0.5}%4",
density 16 $ slow 12 $ slow 2 $ (0.25 <~) $ sound "nclp:18"
]

--pattern11, commenting out everything but snare
d1 $ stack [
density 16 $ slow 12 $ superimpose (iter 4) $ sound "plow:5 {plow:2?, [plow:1*3 plow:6*2 pbang]?}?"
  # speed "{2 1 3 4}%6",
density 16 $ slow 12 $ every 2 (0.25 ~>) $ sound "ek:13" # gain "1",
density 16 $ slow 6 $ density 2 $ sound "ehh:12 ~ ~ ehh:12" # speed "1" # gain "0.8" # speed "{1 0.8 0.5 0.7 0.8 0.5}%4",
density 16 $ slow 12 $ slow 2 $ (0.25 <~) $ sound "nclp:20"
]

--pattern12, snare only
d1 $ stack [
density 16 $ slow 12 $ slow 2 $ (0.25 <~) $ sound "nclp:20"
]

d1 silence

d1 silence

--pattern13, reduced main groove
d1 $ stack [
density 128 $ slow 6 $ jux (iter 8) $ sound "cspecial:5 {[plow:2? cspecial cspecial:8]? [plow:1*3 plow:6*2 pbang]?}?"
  # speed "{9 8 7 5}%6"
  # gain "2"
]

d1 silence

d1 $ stack [
density 16 $ slow 12 $ sometimes (density 1.5) $  sound "ehh*8"
]

d1 silence


cps 0.6

--pattern12, compressed addition
d1 $ stack [
density 16 $ slow 12 $ superimpose (iter 4) $ sound "plow:5 {plow:2?, [plow:1*3 plow:6*2 pbang]?}?"
  # speed "{9 1.5 1.5 3}%6",
density 16 $ slow 12 $ every 2 (0.25 ~>) $ sound "ek:13" # gain "500",
density 16 $ slow 6 $ density 2 $ sound "ehh:12 ~ ~ ehh:12" # speed "1" # gain "1" # speed "{1 0.8 0.5 0.7 0.8 0.5}%4",
density 16 $ slow 12 $ slow 2 $ (0.25 <~) $ sound "nclp:20",
degradeBy 0.1 $ density 16 $ slow 12 $ sometimesBy 0.2 (slow 2)
$ sometimesBy 0.8 (# speed "2") $ sometimesBy 0.2 (# speed "1 2.2 1.5 2 9")
$ sometimesBy 0.3 (# coarse "4 9 3 4") $
sometimesBy 0.2 (density 2) $ sound (samples "cspecial*8" (irand(10)))
  # gain "10"
]

cps 0.6

--pattern14, compressed messing around
d1 $ stack [
--density 16 $ slow 12 $ superimpose (iter 4) $ sound "plow:5 {plow:2?, [plow:1*3 plow:6*2 pbang]?}?"
--  # speed "{9 1.5 1.5 3}%6",
--density 16 $ slow 12 $ sound "ek:43*2" # gain "8",
--density 16 $ slow 6 $ density 2 $ sound "ehh:12 ~ ~ ehh:12" # speed "1" # gain "1" # speed "{1 0.8 0.5 0.7 0.8 0.5}%4",
--density 16 $ slow 12 $ (0.25 <~) $ sound "nclp:49" # gain "6",
degradeBy 0.1 $ density 16 $ slow 12 $ sometimesBy 0.2 (slow 2)
$ sometimesBy 0.8 (# speed "2") $ sometimesBy 0.2 (# speed "1 2.2 1.5 2 9")
$ sometimesBy 0.3 (# coarse "4 9 3 4") $
sometimesBy 0.2 (density 2) $ sound (samples "cspecial*16" (irand(10))) # speed "39 99 15 90 24"
  # gain "10"
]



d1 silence


-


d1 silence

cps 0.6


d1 silence

d1 silence

d2 silence

d1 silence


let time = density 16 $ slow 12 $

d1 silence

-- good kix - 9 13 20
-- good snarz - 16 26

d1 silence

d1 silence

d3 silence

d2 <- stream "127.0.0.1" 57122 dirt {timestamp = BundleStamp, latency = 0.1}
